svg/shape/cylinder_line.svg

<svg xmlns="http://www.w3.org/2000/svg" width="24" height="24" viewBox="0 0 24 24"><g fill="none" fill-rule="evenodd"><path d="M24,0 L24,24 L0,24 L0,0 L24,0 Z M12.5935,23.2578 L12.5819,23.2595 L12.5109,23.295 L12.4919,23.2987 L12.4767,23.295 L12.4057,23.2595 C12.3958,23.2564 12.387,23.259 12.3821,23.2649 L12.378,23.2758 L12.3609,23.7031 L12.3659,23.7235 L12.3769,23.7357 L12.4805,23.8097 L12.4953,23.8136 L12.5071,23.8097 L12.6107,23.7357 L12.6233,23.7197 L12.6267,23.7031 L12.6096,23.2758 C12.6076,23.2657 12.601,23.2593 12.5935,23.2578 Z M12.8584,23.1453 L12.8445,23.1473 L12.6598,23.2397 L12.6499,23.2499 L12.6472,23.2611 L12.6651,23.6906 L12.6699,23.7034 L12.6784,23.7105 L12.8793,23.8032 C12.8914,23.8069 12.9022,23.803 12.9078,23.7952 L12.9118,23.7812 L12.8777,23.1665 C12.8753,23.1546 12.8674,23.147 12.8584,23.1453 Z M12.143,23.1473 C12.1332,23.1424 12.1222,23.1453 12.1156,23.1526 L12.1099,23.1665 L12.0758,23.7812 C12.0751,23.7927 12.0828,23.8019 12.0926,23.8046 L12.1083,23.8032 L12.3092,23.7105 L12.3186,23.7024 L12.3225,23.6906 L12.3404,23.2611 L12.3372,23.2485 L12.3278,23.2397 L12.143,23.1473 Z"/><path fill="#09244B" d="M6.19525,5.70906 C6.42458,5.9027 6.81573,6.12215 7.38659,6.32603 C8.5196,6.73067 10.1506,7 12,7 C13.8494,7 15.4804,6.73067 16.6134,6.32603 C17.1843,6.12215 17.5754,5.9027 17.8048,5.70906 C18.0163,5.53045 18.0163,5.46955 17.8048,5.29094 C17.5754,5.0973 17.1843,4.87785 16.6134,4.67397 C15.4804,4.26933 13.8494,4 12,4 C10.1506,4 8.5196,4.26933 7.38659,4.67397 C6.81573,4.87785 6.42458,5.0973 6.19525,5.29094 C5.98372,5.46955 5.98372,5.53045 6.19525,5.70906 Z M18,7.91726 C17.7726,8.02403 17.5333,8.12123 17.2861,8.20951 C15.8856,8.70968 14.0166,9 12,9 C9.98341,9 8.1144,8.70968 6.71392,8.20951 C6.46675,8.12123 6.22738,8.02403 6,7.91726 L6,18.486 C6.00906,18.5096 6.04856,18.5852 6.19525,18.7091 C6.42458,18.9027 6.81573,19.1221 7.38659,19.326 C8.5196,19.7307 10.1506,20 12,20 C13.8494,20 15.4804,19.7307 16.6134,19.326 C17.1843,19.1221 17.5754,18.9027 17.8048,18.7091 C17.9514,18.5852 17.9909,18.5096 18,18.486 L18,7.91726 Z M20,5.5 L20,18.5 C20,19.2537 19.5695,19.8365 19.0951,20.2372 C18.616,20.6417 17.982,20.961 17.2861,21.2095 C15.8856,21.7097 14.0166,22 12,22 C9.98341,22 8.1144,21.7097 6.71392,21.2095 C6.01803,20.961 5.38405,20.6417 4.90494,20.2372 C4.43048,19.8365 4,19.2537 4,18.5 L4,5.5 C4,4.74631 4.43048,4.16346 4.90494,3.76283 C5.38405,3.35829 6.01803,3.03902 6.71392,2.79049 C8.1144,2.29032 9.98341,2 12,2 C14.0166,2 15.8856,2.29032 17.2861,2.79049 C17.982,3.03902 18.616,3.35829 19.0951,3.76283 C19.5695,4.16346 20,4.74631 20,5.5 Z"/></g></svg>

<svg xmlns="http://www.w3.org/2000/svg" width="24" height="24"><g fill="none" fill-rule="evenodd"><path d="M24 0v24H0V0zM12.594 23.258l-.012.002-.071.035-.02.004-.014-.004-.071-.036c-.01-.003-.019 0-.024.006l-.004.01-.017.428.005.02.01.013.104.074.015.004.012-.004.104-.074.012-.016.004-.017-.017-.427c-.002-.01-.009-.017-.016-.018m.264-.113-.014.002-.184.093-.01.01-.003.011.018.43.005.012.008.008.201.092c.012.004.023 0 .029-.008l.004-.014-.034-.614c-.003-.012-.01-.02-.02-.022m-.715.002a.023.023 0 0 0-.027.006l-.006.014-.034.614c0 .012.007.02.017.024l.015-.002.201-.093.01-.008.003-.011.018-.43-.003-.012-.01-.01z"/><path fill="#09244B" d="M6.195 5.71c.23.193.62.412 1.192.616C8.52 6.731 10.15 7 12 7c1.85 0 3.48-.27 4.613-.674.571-.204.962-.423 1.192-.617.211-.179.211-.24 0-.418-.23-.194-.62-.413-1.192-.617C15.48 4.269 13.85 4 12 4c-1.85 0-3.48.27-4.613.674-.571.204-.962.423-1.192.617-.211.179-.211.24 0 .418M18 7.916a8.063 8.063 0 0 1-.714.293c-1.4.5-3.27.79-5.286.79-2.017 0-3.886-.29-5.286-.79A8.064 8.064 0 0 1 6 7.917v10.569c.01.024.049.1.195.223.23.194.62.413 1.192.617C8.52 19.731 10.15 20 12 20c1.85 0 3.48-.27 4.613-.674.571-.204.962-.423 1.192-.617.146-.124.186-.2.195-.223zM20 5.5v13c0 .754-.43 1.337-.905 1.737-.479.405-1.113.724-1.809.973-1.4.5-3.27.79-5.286.79-2.017 0-3.886-.29-5.286-.79-.696-.249-1.33-.568-1.81-.973C4.43 19.837 4 19.254 4 18.5v-13c0-.754.43-1.337.905-1.737.479-.405 1.113-.724 1.809-.973C8.114 2.29 9.984 2 12 2c2.017 0 3.886.29 5.286.79.696.249 1.33.568 1.81.973.474.4.904.983.904 1.737"/></g></svg>
